static/img/kroki/8ce462d60145044ffcc9a82d85c62d3c.svg

<?xml version="1.0" encoding="us-ascii" standalone="no"?><svg xmlns="http://www.w3.org/2000/svg" xmlns:xlink="http://www.w3.org/1999/xlink" contentStyleType="text/css" height="374px" preserveAspectRatio="none" style="width:382px;height:374px;" version="1.1" viewBox="0 0 382 374" width="382px" zoomAndPan="magnify"><defs/><g><!--class aws_cloudfront_streaming_distribution--><g id="elem_aws_cloudfront_streaming_distribution"><rect codeLine="23" fill="#3D176E" height="39.7891" id="aws_cloudfront_streaming_distribution" rx="2.5" ry="2.5" style="stroke:#000D19;stroke-width:0.5;" width="368" x="7" y="328.58"/><ellipse cx="22" cy="348.4745" fill="#ADD1B2" rx="11" ry="11" style="stroke:#181818;stroke-width:1.0;"/><path d="M24.9688,354.1152 Q24.3906,354.412 23.75,354.5527 Q23.1094,354.7089 22.4063,354.7089 Q19.9063,354.7089 18.5781,353.0683 Q17.2656,351.412 17.2656,348.287 Q17.2656,345.162 18.5781,343.5058 Q19.9063,341.8495 22.4063,341.8495 Q23.1094,341.8495 23.75,342.0058 Q24.4063,342.162 24.9688,342.4589 L24.9688,345.1777 Q24.3438,344.5995 23.75,344.3339 Q23.1563,344.0527 22.5313,344.0527 Q21.1875,344.0527 20.5,345.1308 Q19.8125,346.1933 19.8125,348.287 Q19.8125,350.3808 20.5,351.4589 Q21.1875,352.5214 22.5313,352.5214 Q23.1563,352.5214 23.75,352.2558 Q24.3438,351.9745 24.9688,351.3964 L24.9688,354.1152 Z " fill="#000000"/><text fill="#D9B8FF" font-family="Helvetica" font-size="17" lengthAdjust="spacing" textLength="326" x="41" y="354.3598">aws_cloudfront_streaming_distribution</text></g><!--class aws_resource--><g id="elem_aws_resource"><rect codeLine="26" fill="#3D176E" height="39.7891" id="aws_resource" rx="2.5" ry="2.5" style="stroke:#000D19;stroke-width:0.5;" width="155" x="113.5" y="167.79"/><ellipse cx="128.5" cy="187.6845" fill="#ADD1B2" rx="11" ry="11" style="stroke:#181818;stroke-width:1.0;"/><path d="M131.4688,193.3252 Q130.8906,193.622 130.25,193.7627 Q129.6094,193.9189 128.9063,193.9189 Q126.4063,193.9189 125.0781,192.2783 Q123.7656,190.622 123.7656,187.497 Q123.7656,184.372 125.0781,182.7158 Q126.4063,181.0595 128.9063,181.0595 Q129.6094,181.0595 130.25,181.2158 Q130.9063,181.372 131.4688,181.6689 L131.4688,184.3877 Q130.8438,183.8095 130.25,183.5439 Q129.6563,183.2627 129.0313,183.2627 Q127.6875,183.2627 127,184.3408 Q126.3125,185.4033 126.3125,187.497 Q126.3125,189.5908 127,190.6689 Q127.6875,191.7314 129.0313,191.7314 Q129.6563,191.7314 130.25,191.4658 Q130.8438,191.1845 131.4688,190.6064 L131.4688,193.3252 Z " fill="#000000"/><text fill="#D9B8FF" font-family="Helvetica" font-size="17" lengthAdjust="spacing" textLength="113" x="147.5" y="193.5698">aws_resource</text></g><!--class resource--><g id="elem_resource"><rect codeLine="29" fill="#3D176E" height="39.7891" id="resource" rx="2.5" ry="2.5" style="stroke:#000D19;stroke-width:0.5;" width="113" x="134.5" y="7"/><ellipse cx="149.5" cy="26.8945" fill="#ADD1B2" rx="11" ry="11" style="stroke:#181818;stroke-width:1.0;"/><path d="M152.4688,32.5352 Q151.8906,32.832 151.25,32.9727 Q150.6094,33.1289 149.9063,33.1289 Q147.4063,33.1289 146.0781,31.4883 Q144.7656,29.832 144.7656,26.707 Q144.7656,23.582 146.0781,21.9258 Q147.4063,20.2695 149.9063,20.2695 Q150.6094,20.2695 151.25,20.4258 Q151.9063,20.582 152.4688,20.8789 L152.4688,23.5977 Q151.8438,23.0195 151.25,22.7539 Q150.6563,22.4727 150.0313,22.4727 Q148.6875,22.4727 148,23.5508 Q147.3125,24.6133 147.3125,26.707 Q147.3125,28.8008 148,29.8789 Q148.6875,30.9414 150.0313,30.9414 Q150.6563,30.9414 151.25,30.6758 Q151.8438,30.3945 152.4688,29.8164 L152.4688,32.5352 Z " fill="#000000"/><text fill="#D9B8FF" font-family="Helvetica" font-size="17" lengthAdjust="spacing" textLength="71" x="168.5" y="32.7798">resource</text></g><!--reverse link aws_resource to aws_cloudfront_streaming_distribution--><g id="link_aws_resource_aws_cloudfront_streaming_distribution"><path codeLine="32" d="M191,225.84 C191,256.36 191,297.69 191,328.25 " fill="none" id="aws_resource-backto-aws_cloudfront_streaming_distribution" style="stroke:#FFAF37;stroke-width:2.0;"/><polygon fill="none" points="191,207.84,185,225.84,197,225.84,191,207.84" style="stroke:#FFAF37;stroke-width:2.0;"/></g><!--reverse link resource to aws_resource--><g id="link_resource_aws_resource"><path codeLine="33" d="M191,65.05 C191,95.57 191,136.9 191,167.46 " fill="none" id="resource-backto-aws_resource" style="stroke:#FFAF37;stroke-width:2.0;"/><polygon fill="none" points="191,47.05,185,65.05,197,65.05,191,47.05" style="stroke:#FFAF37;stroke-width:2.0;"/></g><!--SRC=[ZP9BRy8m48Jl-HMME4SAHIr4wWMGglQ2gj8xMkmrM4diQDTfH1__lQ4fbKbuz3hxhMTcvQrHAB0e_KuKMAoHEEBCs1882Z4bSlNSvOx4G6lGet5t-E2ilmeie43nYFaRUYEXIxnkZSmiCekRO3G3cMt8LLQrpti2oyq8hG-eUGxCK-_9h2kFGHYLhYTQTydkeuEH6exli8SvKaY_I98aQfXsaQjM5tl_4KlpZc8O7ctXFFPYzYn-g8ifzqGGibVqC3-RyHcKCdOZRWFjfSr45kb8Nsv1kNfFQyWvj66FXCxlIfptMc4wKNfy4duw1qToVpe1DQzaxYgbgUcmOay8HUE_KeRRps2S5HzHz1Ki4BAhI6Ae7sj7rFrd7CV_SufEB1saw1i0]--></g></svg>

<svg xmlns="http://www.w3.org/2000/svg" width="382" height="374" viewBox="0 0 382 374"><rect width="368" height="39.789" x="7" y="328.58" fill="#3D176E" rx="2.5" ry="2.5" style="stroke:#000d19;stroke-width:.5"/><circle cx="22" cy="348.474" r="11" fill="#ADD1B2" style="stroke:#181818;stroke-width:1"/><path d="M24.969 354.115q-.578.297-1.219.438-.64.156-1.344.156-2.5 0-3.828-1.64-1.312-1.657-1.312-4.782t1.312-4.781q1.328-1.656 3.828-1.656.703 0 1.344.156.656.156 1.219.453v2.719q-.625-.579-1.219-.844-.594-.281-1.219-.281-1.343 0-2.031 1.078-.687 1.062-.687 3.156t.687 3.172q.688 1.062 2.031 1.062.625 0 1.219-.265.594-.281 1.219-.86z"/><text x="41" y="354.36" fill="#D9B8FF" font-family="Helvetica" font-size="17" textLength="326">aws_cloudfront_streaming_distribution</text><rect width="155" height="39.789" x="113.5" y="167.79" fill="#3D176E" rx="2.5" ry="2.5" style="stroke:#000d19;stroke-width:.5"/><circle cx="128.5" cy="187.685" r="11" fill="#ADD1B2" style="stroke:#181818;stroke-width:1"/><path d="M131.469 193.325q-.578.297-1.219.438-.64.156-1.344.156-2.5 0-3.828-1.64-1.312-1.657-1.312-4.782t1.312-4.781q1.328-1.656 3.828-1.656.703 0 1.344.156.656.156 1.219.453v2.719q-.625-.578-1.219-.844-.594-.281-1.219-.281-1.344 0-2.031 1.078-.687 1.062-.687 3.156t.687 3.172q.688 1.062 2.031 1.062.625 0 1.219-.265.594-.281 1.219-.86z"/><text x="147.5" y="193.57" fill="#D9B8FF" font-family="Helvetica" font-size="17" textLength="113">aws_resource</text><rect width="113" height="39.789" x="134.5" y="7" fill="#3D176E" rx="2.5" ry="2.5" style="stroke:#000d19;stroke-width:.5"/><circle cx="149.5" cy="26.895" r="11" fill="#ADD1B2" style="stroke:#181818;stroke-width:1"/><path d="M152.469 32.535q-.578.297-1.219.438-.64.156-1.344.156-2.5 0-3.828-1.64-1.312-1.657-1.312-4.782t1.312-4.781q1.328-1.656 3.828-1.656.703 0 1.344.156.656.156 1.219.453v2.719q-.625-.578-1.219-.844-.594-.281-1.219-.281-1.344 0-2.031 1.078-.687 1.062-.687 3.156t.687 3.172q.688 1.062 2.031 1.062.625 0 1.219-.265.594-.281 1.219-.86z"/><text x="168.5" y="32.78" fill="#D9B8FF" font-family="Helvetica" font-size="17" textLength="71">resource</text><path fill="none" d="M191 225.84v102.41m0-120.41-6 18h12zm0-142.79v102.41m0-120.41-6 18h12z" style="stroke:#ffaf37;stroke-width:2"/></svg>
